X:11632
T: Walzer  F (wz01006)
S:Hanny Christen. Bd.VI  Fribourg, Welschland, Wallis, Bern I. S.265 (wz01006) orig. F-Dur
S:Walliser (Volks-)Tänze. S.234-276
%%MIDI program 21
R:waltz
O:Switzerland
M:3/4
L:1/8
K:F %%MIDI gchordon
"Bb"fd Bf dB | "F"cA FAc2 | "C7"BG EG CC | "F"FA FAF2 | "Bb"fd Bf dB | "F"cA FAc2 | "C7"BG EG Cc | "F"f2z2z2 ::
"F"cf ac fa | cf ac'c'2 | "C7"bg ecc2 | "F"f3ff2 | cf ac fa | cf ac'c'2 | "Bb"b2"C7"ge ce | "F"f2z2z2 :| 

